X: 36102
T: Schoolhouse
R: jig
M: 6/8
K: Eminor
|:~E3 ~G3|~B3 e2f|gfe dBA|BAG AGF|
~E3 ~G3|~B3 e2f|gfe dBG|1 AGF E2D:|2 AGF E2f||
|:gee Bee|gee B/c/df|gfe dBA|BAG AGF|
gee Bee|gee B/c/df|gfe dBG|1 AGF E2f:|2 AGF E2D||

